X: 14
T: Brighton Camp
%R: march
B: "Twenty Four Country Dances for the Year 1799", Thomas Skillern, ed. p.7 #2
F: http://www.vwml.org/browse/browse-collections-dance-tune-books/browse-skillerns1799
Z: 2014 John Chambers <jc:trillian.mit.edu>
M: 2/4
L: 1/8
K: A
f |\
e>cc>B | c>A TF2 | {EF/G/}AA A/B/c/d/ | {^d}e2c>f |\
e>cc>B | {AB}c>A F>A | GB E/F/G/E/ | A2A :|
|: B |\
cefg | aecA | cefg | Ta2gb |\
agaf | eccB | cFGE | A2A :|
%%begintext align
%% Set and Hands 3 round with the 2d Lady, the
%% same with the 2d Gent., lead down the middle
%% up again, Cast off and Allemand.
%%endtext
